packages/calcite-ui-icons/icons/parameters-plus-16.svg

<?xml version="1.0" encoding="UTF-8"?><svg id="icons" xmlns="http://www.w3.org/2000/svg" viewBox="0 0 16 16"><defs><style>.cls-1{fill:none;}</style></defs><rect class="cls-1" width="16" height="16"/><path d="M10.83691,7.32812c.26172-.79883.1377-1.63477-.33984-2.29395-.46973-.64746-1.22656-1.03418-2.02539-1.03418h-2.47168v8h1v-3h1.41016c1.10645,0,2.10449-.6875,2.42676-1.67188ZM9.88574,7.01758c-.18945.57812-.7959.98242-1.47559.98242h-1.41016v-3h1.47168c.47949,0,.93359.23242,1.21484.62109.28809.39648.36035.90527.19922,1.39648ZM15.99,4.5l.01,6.5h-1v-6.5c0-1.37891-1.12109-2.5-2.5-2.5H3.5c-1.37891,0-2.5,1.12109-2.5,2.5v7c0,1.37891,1.12109,2.5,2.5,2.5h5.5v1H3.5c-1.92969,0-3.5-1.57031-3.5-3.5v-7C0,2.57031,1.57031,1,3.5,1h9c1.92969,0,3.49,1.57031,3.49,3.5ZM13,12h3v1h-3v3h-1v-3h-3v-1h3v-3h1v3Z"/></svg>

<svg xmlns="http://www.w3.org/2000/svg" viewBox="0 0 16 16"><path fill="none" d="M0 0h16v16H0z"/><path d="M10.837 7.328c.262-.799.138-1.635-.34-2.294A2.51 2.51 0 0 0 8.472 4H6v8h1V9h1.41c1.107 0 2.105-.688 2.427-1.672zm-.951-.31C9.696 7.596 9.09 8 8.41 8H7V5h1.472c.48 0 .933.232 1.215.621.288.397.36.905.199 1.397zM15.99 4.5L16 11h-1V4.5C15 3.121 13.879 2 12.5 2h-9A2.502 2.502 0 0 0 1 4.5v7C1 12.879 2.121 14 3.5 14H9v1H3.5C1.57 15 0 13.43 0 11.5v-7C0 2.57 1.57 1 3.5 1h9c1.93 0 3.49 1.57 3.49 3.5zM13 12h3v1h-3v3h-1v-3H9v-1h3V9h1v3z"/></svg>
